X:1
T:Bewdley, 77.77
T:Bewdley, 77.77
T:Frederick Arthur Gore-Ouseley, 1889
T:Public Domain Courtesy of the Cyber Hymnal™
C:Frederick Arthur Gore-Ouseley, 1889
Z:Public Domain
Z:Courtesy of the Cyber Hymnal™
%%score ( 1 2 ) ( 3 4 )
L:1/8
Q:1/4=115
M:2/2
K:A
V:1 treble 
V:2 treble 
V:3 bass 
V:4 bass 
V:1
 [CE]2 [CE]2 [DF]2 [DB]2 | [EG]2 [EA]2 [EB]4 | [Ec]2 [Ee]2 [EB]2 E2 | [EF]2 [^DG]2 E4 | %4
 [CF]2 [CF]2 [FB]2 [DB]2 | [=Gc]2 [Fc]2 [Fd]4 | [Ee]3 [Ed] [Ec]2 [EA]2 | [EF]2 [DG]2 [CA]4 |] %8
V:2
 x8 | x8 | x6 E2 | x4 E4 | x8 | x8 | x8 | x8 |] %8
V:3
 [A,,A,]2 [A,,A,]2 [D,A,]2 [B,,B,]2 | [E,B,]2 [C,A,]2 [E,G,]4 | [A,,A,]2 [C,A,]2 [E,G,]2 [C,G,]2 | %3
 [A,,C]2 [B,,A,]2 [E,G,]4 | [E,^A,]2 [E,A,]2 [E,B,]2 [=G,B,]2 | [E,B,]2 [F,^A,]2 [B,,B,]4 | %6
 [G,,B,]3 [G,,B,] [A,,A,]2 [C,A,]2 | [D,A,]2 E,2 [A,,E,]4 |] %8
V:4
 x8 | x8 | x8 | x8 | x8 | x8 | x8 | x2 E,2 x4 |] %8

